X:27
T:Jared's
R:reel
C:Dougie MacDonald
O:20th century Cape Breton
N:Bookings,Mechanicals etc.
N:..... Dougie MacDonald <dougmd68@hotmail.com>
Z:P.S.C.
S:http://www.cranfordpub.com/dougie
Q:333
L:1/8
M:C|
K:F
zC|F2 cB AFcB|A2 ag fcAc|dcBd cAfc|BGAF GECE|
F2 cB AFcB|A2 ag fcAc|dcBd cAfc|BGFE F2:|
|:fg|afef dfce|fdcf BfAf|dcBd cAfc|BGAF GECE|
afef dfce|fdcf BfAf|dcBd cAfc|BGFE F2:|
W:Copyrights - Dougie MacDonald (SOCAN)

